X:1
T:Title
%%score { ( 1 4 ) | ( 2 3 ) }
L:1/8
Q:1/4=123
M:6/4
K:Db
V:1 treble nm="Grand Piano"
V:4 treble 
V:2 bass 
V:3 bass 
V:1
 [FA]2 [_F=G]2 [=FA]2 [Fd]2 [Ac]2 .[B,_GB]2 | [DFA]4 [A,EG]2 [A,DF]6 | %2
w: J.~K.~Everett * * * * *||
 [EG]2 [EG]2 [EG]2 [EG]2 [DF]2 [CEG]2 | [GB]4 [_F=G]2 [=FA]6 | %4
w: ||
 [FA]2 [_F=G]2 [=FA]2 [Fd]2 [Ac]2 .[B,_GB]2 | [DFA]4 [Fd]2 [Gc]4 c2 | d2 A2 G2 F4 [CE]2 | %7
w: |||
[M:5/4] D2- D2- D6 |[M:1/4] [FA]2 |[M:6/4] .F6 z6 | [DFA]4 [CGA]2 [DFA]4 [Fd]2 | .c12 | %12
w: |||||
 .[DFd]4 [Gd]2 [Fd]4 [FA]2 | [Fd]2 d2 d2 [Fd]4 [Fd]2 |[M:7/4] [Af]2 [Ae]2 [Ad]2 B6 B2 | %15
w: |||
[M:6/4] A2 c2 B2 A4 e2 | [Fd]12 |] %17
w: ||
V:2
 [D,D]2 [D,D]2 [D,D]2 [D,A,]2 .[D,A,]3 C | D,4 D,2 D,6 | %2
 [A,,A,]2 [A,,A,]2 [A,,A,]2 [A,,A,]2 [A,,A,]2 A,,2 | [D,D]4 [D,D]2 [D,D]6 | %4
 [D,D]2 [D,D]2 [D,D]2 [D,A,]2 .[D,A,]3 C | D,4 [D,A,]2 [E,A,]4 [G,A,E]2 | %6
 [F,A,D]2 [F,A,D]2 [G,B,E]2 [A,D]4 [A,,G,]2 |[M:5/4] [D,F,]2- [D,F,]2- [D,F,]6 |[M:1/4] [D,D]2 | %9
[M:6/4] [D,D]2 [D,F,]2 [D,A,]2 [D,D]2 [D,A,]2 D,2 | D,4 A,,2 D,4 [D,A,]2 | %11
 [E,A,E]2 [E,A,]2 [E,A,]2 [E,A,]2[K:treble] [A,CG]2 [A,CG]2 | z2 C2 [D,B,]2 [D,A,]4 [D,D]2 | %13
 [D,A,]2[K:treble] [F,A,F]2 [A,F]2[K:bass] [D,A,]4 [D,A,]2 | %14
[M:7/4] [D,D]2 [E,C]2 [F,D]2[K:treble] [G,DG]6 [G,DG]2 | %15
[M:6/4] [A,DF]2 [A,DA]2 [A,DG]2 [A,DF]4 [A,CG]2 | [D,A,]12 |] %17
V:3
 z6 z4 D,2 | x12 | x12 | x12 | z6 z4 D,2 | x12 | x12 |[M:5/4] x10 |[M:1/4] x2 |[M:6/4] x12 | x12 | %11
 x8[K:treble] x4 | .D,6 z6 | x2[K:treble] x4[K:bass] x6 |[M:7/4] x6[K:treble] x8 |[M:6/4] x12 | %16
 x12 |] %17
V:4
 x12 | x12 | x12 | x12 | x12 | x12 | x12 |[M:5/4] x10 |[M:1/4] x2 | %9
[M:6/4] A2- [DA-]2 [EA-]2 [FA]2 [FB]2 [A,DF]2 | x12 | z2 E2 E2 E2 e2 e2 | x12 | x12 |[M:7/4] x14 | %15
[M:6/4] x12 | x12 |] %17

